apps/earn-protocol-landing-page/public/img/branding/dot-dark.svg

<svg width="295" height="264" viewBox="0 0 295 264" fill="none" xmlns="http://www.w3.org/2000/svg">

  <g fill="url(#paint0_linear_7157_6718)">
    <path
      d="M129.88 105.623C178.902 116.741 209.729 142.009 209.729 182.945C209.729 233.987 163.235 262.793 105.117 262.793C51.5479 262.793 8.59132 234.998 0 187.998L65.1929 176.375C68.2252 198.106 84.9024 209.224 105.117 209.224C126.343 209.224 138.977 199.622 138.977 186.482C138.977 172.332 125.332 165.762 111.182 162.73L80.8594 156.665C34.3653 145.547 4.04297 119.773 4.04297 78.3326C4.04297 28.3008 51.5479 0 105.117 0C158.181 0 195.073 28.3008 202.654 75.8058L137.461 86.9239C134.934 66.7091 121.795 54.5801 101.58 54.5801C84.397 54.5801 70.752 62.6661 70.752 76.8165C70.752 90.4615 81.8702 96.526 96.5259 99.5582L129.88 105.623Z"
    />
    <path
      d="M252.686 221.1C229.426 221.1 210.571 239.955 210.571 263.214H294.8C294.8 239.955 275.945 221.1 252.686 221.1Z"
    />
  </g>
  <defs>
    <linearGradient id="paint0_linear_7157_6718" x1="0" y1="9.49988" x2="110" y2="9.49988"
      gradientUnits="userSpaceOnUse">
      <stop stop-color="#FF49A4" />
      <stop offset="0.93" stop-color="#B049FF" />
    </linearGradient>
  </defs>
</svg>

<svg xmlns="http://www.w3.org/2000/svg" width="295" height="264" fill="none" xmlns:v="https://vecta.io/nano"><g fill="url(#A)"><path d="M129.88 105.623c49.022 11.118 79.849 36.386 79.849 77.322 0 51.042-46.494 79.848-104.612 79.848-53.569 0-96.526-27.795-105.117-74.795l65.193-11.623c3.032 21.731 19.71 32.849 39.924 32.849 21.226 0 33.86-9.602 33.86-22.742 0-14.15-13.645-20.72-27.795-23.752l-30.323-6.065C34.365 145.547 4.043 119.773 4.043 78.333 4.043 28.301 51.548 0 105.117 0c53.064 0 89.956 28.301 97.537 75.806l-65.193 11.118c-2.527-20.215-15.666-32.344-35.881-32.344-17.183 0-30.828 8.086-30.828 22.236 0 13.645 11.118 19.709 25.774 22.742l33.354 6.065z"/><path d="M252.686 221.1c-23.26 0-42.115 18.855-42.115 42.114H294.8c0-23.259-18.855-42.114-42.114-42.114z"/></g><defs><linearGradient id="A" x1="0" y1="9.5" x2="110" y2="9.5" gradientUnits="userSpaceOnUse"><stop stop-color="#ff49a4"/><stop offset=".93" stop-color="#b049ff"/></linearGradient></defs></svg>
